src/assets/icons/github.svg

<svg fill="none" height="28" viewBox="0 0 28 28" width="28" xmlns="http://www.w3.org/2000/svg"><path d="m13.9999.400024c-7.51063 0-13.600028 6.089396-13.600028 13.599976 0 6.3728 4.388268 11.7051 10.304228 13.1807-.0634-.1836-.1042-.3967-.1042-.6607v-2.3245c-.552 0-1.47676 0-1.7091 0-.93046 0-1.75779-.4001-2.159-1.1435-.44539-.8262-.52246-2.0899-1.62633-2.8628-.32753-.2573-.0782-.5508.2992-.5112.697.1972 1.275.6755 1.819 1.385.54174.7106.79673.8715 1.8088.8715.49073 0 1.22513-.0283 1.91643-.1371.3718-.9441 1.0144-1.8134 1.7998-2.2236-4.52883-.4658-6.69009-2.7189-6.69009-5.7778 0-1.3169.561-2.5908 1.51413-3.664-.3128-1.06538-.70607-3.23798.12013-4.06531 2.03774 0 3.26963 1.32147 3.56543 1.67847 1.0155-.34794 2.1307-.54514 3.3026-.54514 1.1741 0 2.2938.1972 3.3116.5474.2924-.35473 1.5254-1.68073 3.5677-1.68073.8296.82847.4318 3.01013.1156 4.07321.9475 1.071 1.5051 2.3415 1.5051 3.6561 0 3.0566-2.1579 5.3086-6.6799 5.7766 1.2444.6494 2.1522 2.4741 2.1522 3.8488v3.0986c0 .1178-.0261.2028-.0397.3037 5.2995-1.8575 9.1064-6.8895 9.1064-12.8237 0-7.51058-6.0894-13.599976-13.6-13.599976z" fill="#000"/></svg>

<svg width="28" height="28" viewBox="0 0 28 28" fill="none" xmlns="http://www.w3.org/2000/svg">
<path d="M13.9999 0.400024C6.48927 0.400024 0.399872 6.48942 0.399872 14C0.399872 20.3728 4.78814 25.7051 10.7041 27.1807C10.6407 26.9971 10.5999 26.784 10.5999 26.52V24.1955C10.0479 24.1955 9.12314 24.1955 8.8908 24.1955C7.96034 24.1955 7.13301 23.7954 6.7318 23.052C6.28641 22.2258 6.20934 20.9621 5.10547 20.1892C4.77794 19.9319 5.02727 19.6384 5.40467 19.678C6.10167 19.8752 6.67967 20.3535 7.22367 21.063C7.76541 21.7736 8.0204 21.9345 9.03247 21.9345C9.5232 21.9345 10.2576 21.9062 10.9489 21.7974C11.3207 20.8533 11.9633 19.984 12.7487 19.5738C8.21987 19.108 6.05861 16.8549 6.05861 13.796C6.05861 12.4791 6.61961 11.2052 7.57274 10.132C7.25994 9.06662 6.86667 6.89402 7.69287 6.06669C9.73061 6.06669 10.9625 7.38816 11.2583 7.74516C12.2738 7.39722 13.389 7.20002 14.5609 7.20002C15.735 7.20002 16.8547 7.39722 17.8725 7.74742C18.1649 7.39269 19.3979 6.06669 21.4402 6.06669C22.2698 6.89516 21.872 9.07682 21.5558 10.1399C22.5033 11.2109 23.0609 12.4814 23.0609 13.796C23.0609 16.8526 20.903 19.1046 16.381 19.5726C17.6254 20.222 18.5332 22.0467 18.5332 23.4214V26.52C18.5332 26.6378 18.5071 26.7228 18.4935 26.8237C23.793 24.9662 27.5999 19.9342 27.5999 14C27.5999 6.48942 21.5105 0.400024 13.9999 0.400024Z" fill="black"/>
</svg>
